X:1
T:Merry Blacksmith, The
R:reel
M:4/4
L:1/8
K:D
d2dA BAFA|ABdA BAFA|ABde fded|Beed egfe|
d2dA BAFA|ABdA BAFA|ABde fdec|dBAF D4:|
a2ag f2fe|d2dA BAFA|ABde fded|Beed egfe|
a2ag f2fe|d2dA BAFA|ABde fdec|dBAF D4:|
</abc>
<abc>
